src/images/avatars/avatar-12.svg

<svg fill="none" height="77" viewBox="0 0 60 77" width="60" xmlns="http://www.w3.org/2000/svg"><path d="m10.2242 30.7979c0-2.1-3.10002-3.1-9.10002 2.5-1.400005-12.7 9.50002-17.5 9.50002-17.5s-1.70002-3.7-9.00002-.2c8.50002-15.900015 26.50002-18.40002 32.00002-9.5 18.7-11.60002 27.8 18.4 24.6 18.1 0 0-5.9-6.1-7.5-4.5-1.4 1.5 6.4 21.9001-1.6 31.8001-6.3-9.2-13.4-13.1001-22.7-10.2-6.1 1.9-18.80002 13.5-18.80002 13.5-3.1-15.4001 2.50002-19.2001 2.60002-24.0001z" fill="#fd8f63" stroke="#4d4d4d" stroke-linejoin="round" stroke-miterlimit="10" stroke-width="2"/><path d="m34.3242 58.0979v-14.4999h-10.3v14.4999c0 1.1-.9 2-2 2h-1.7c0 3.4 4.7 6.1 8.8 6.1s8.8-2.7 8.8-6.1h-1.6c-1.1 0-2-.9-2-2z" fill="#fcc5af" stroke="#4d4d4d" stroke-linejoin="round" stroke-miterlimit="10" stroke-width="2"/><path d="m34.2244 63.1979c-1.7 0-8.8-9.7-8.7-10.5.1-1.5-.1-.9-.1-.9l8.8.2c0 .1.2 11.2 0 11.2z" fill="#f99f7a" opacity=".5"/><g stroke="#4d4d4d" stroke-linejoin="round" stroke-miterlimit="10" stroke-width="2"><path d="m34.3242 58.0979v-14.4999h-10.3v14.4999c0 1.1-.9 2-2 2h-1.7c0 3.4 4.7 6.1 8.8 6.1s8.8-2.7 8.8-6.1h-1.6c-1.1 0-2-.9-2-2z"/><path d="m11.8243 37.1979c2.1539 0 3.9-1.7461 3.9-3.9s-1.7461-3.9-3.9-3.9c-2.15389 0-3.89998 1.7461-3.89998 3.9s1.74609 3.9 3.89998 3.9z" fill="#fcc5af"/><path d="m46.6243 37.1979c2.1539 0 3.9-1.7461 3.9-3.9s-1.7461-3.9-3.9-3.9c-2.154 0-3.9001 1.7461-3.9001 3.9s1.7461 3.9 3.9001 3.9z" fill="#fcc5af"/><path d="m40.3241 13.498s1 6.6-2.1 9.9c-2.7-10.1-9.8-13.60002-16-11.5-7 2.3-10.5 8.5-10.5 21.9999 0 12.5 9.3 19 17 19 8.8 0 18-6.5 18-20.7 0-13.7999-2.8-16.2999-6.4-18.6999z" fill="#fcc5af"/></g><path d="m40.0241 36.698c1.215 0 2.2-.985 2.2-2.2s-.985-2.2-2.2-2.2-2.2.985-2.2 2.2.985 2.2 2.2 2.2z" fill="#f7b69d"/><path d="m18.324 36.698c1.215 0 2.2-.985 2.2-2.2s-.985-2.2-2.2-2.2-2.2.985-2.2 2.2.985 2.2 2.2 2.2z" fill="#f7b69d"/><path d="m27.7241 36.5979v1.7c0 .7001.6 1.3001 1.3 1.3001h1.6" stroke="#4d4d4d" stroke-linecap="round" stroke-linejoin="round" stroke-miterlimit="10" stroke-width="2"/><path d="m26.624 44.898c1.8.7 3.4.7 5.1 0" stroke="#4d4d4d" stroke-linecap="round" stroke-linejoin="round" stroke-miterlimit="10" stroke-width="2"/><path d="m49.5242 66.798c0-4.4-3.6-8-8-8h-5.2s-1.1 7-7.1 7c-5.7 0-7.4-7-7.4-7h-5c-4.4 0-7.99998 3.6-7.99998 8v1.3c5.39998 4.8999 12.49998 7.8999 20.29998 7.8999 7.9 0 15-3 20.4-7.9999z" fill="#fd8f63"/><path d="m34.4243 63.198h14.2c-.5-1-1.2-1.8-2-2.5001h-10.8c-.3.8001-.8 1.7001-1.4 2.5001z" fill="#e0e5e4"/><path d="m24.0243 63.198c-.7-.8-1.2-1.7-1.5-2.5001h-10.8c-.8001.7001-1.5001 1.6001-2.00006 2.5001z" fill="#e0e5e4"/><path d="m29.2242 65.898c-.4 0-.8 0-1.2-.1h-19.09998c0 .4-.1.7-.1 1.0999v1.3l.1.1h40.10008c.0999-.1.1999-.2.2999-.3v-1.1c0-.3999 0-.6999-.0999-1.0999h-18.7001c-.4 0-.9.1-1.3.1z" fill="#e0e5e4"/><path d="m16.7241 73.298h24.7c1.6-.7 3.1-1.6001 4.5-2.5001h-33.7c1.4.9 2.9 1.8001 4.5 2.5001z" fill="#e0e5e4"/><path d="m29.1243 76.9979c-7.7 0-15.1-2.9-20.89998-8.1-.2-.2-.3-.5-.3-.7v-1.3c0-5 3.99998-9 8.99998-9h5c.5 0 .9.3 1 .8 0 .1 1.6 6.3 6.4 6.3 5.1 0 6-5.9 6.1-6.2.1-.5.5-.8 1-.8h5.2c5 0 9 4 9 9v1c0 .3-.1.5-.3.7-5.9 5.3-13.4 8.3-21.2 8.3zm-19.19998-9.3c5.29998 4.7 12.09998 7.3 19.19998 7.3 7.2 0 14.1-2.6 19.4-7.4v-.7c0-3.9-3.1-7-7-7h-4.4c-.7 2.8-3 7-7.9 7-5.3 0-7.5-5.1-8.1-7h-4.2c-3.9 0-6.99998 3.1-6.99998 7z" fill="#4d4d4d"/><path d="m15.2241 67.7979v4.4" stroke="#4d4d4d" stroke-linecap="round" stroke-linejoin="round" stroke-miterlimit="10" stroke-width="2"/><path d="m43.2241 67.7979v4.4" stroke="#4d4d4d" stroke-linecap="round" stroke-linejoin="round" stroke-miterlimit="10" stroke-width="2"/><path d="m22.9243 31.298c.8284 0 1.5-.6716 1.5-1.5 0-.8285-.6716-1.5-1.5-1.5s-1.5.6715-1.5 1.5c0 .8284.6716 1.5 1.5 1.5z" fill="#4d4d4d"/><path d="m35.4243 31.298c.8284 0 1.5-.6716 1.5-1.5 0-.8285-.6716-1.5-1.5-1.5s-1.5.6715-1.5 1.5c0 .8284.6716 1.5 1.5 1.5z" fill="#4d4d4d"/></svg>

<svg width="60" height="77" viewBox="0 0 60 77" fill="none" xmlns="http://www.w3.org/2000/svg">
<path d="M10.2242 30.7979C10.2242 28.6979 7.12418 27.6979 1.12418 33.2979C-0.275825 20.5979 10.6242 15.7979 10.6242 15.7979C10.6242 15.7979 8.92418 12.0979 1.62418 15.5979C10.1242 -0.302115 28.1242 -2.80212 33.6242 6.0979C52.3242 -5.50212 61.4242 24.4979 58.2242 24.1979C58.2242 24.1979 52.3242 18.0979 50.7242 19.6979C49.3242 21.1979 57.1242 41.598 49.1242 51.498C42.8242 42.298 35.7242 38.3979 26.4242 41.298C20.3242 43.198 7.62418 54.798 7.62418 54.798C4.52418 39.3979 10.1242 35.5979 10.2242 30.7979Z" fill="#FD8F63" stroke="#4D4D4D" stroke-width="2" stroke-miterlimit="10" stroke-linejoin="round"/>
<path d="M34.3242 58.0979V43.598H24.0242V58.0979C24.0242 59.1979 23.1242 60.0979 22.0242 60.0979H20.3242C20.3242 63.4979 25.0242 66.1979 29.1242 66.1979C33.2242 66.1979 37.9242 63.4979 37.9242 60.0979H36.3242C35.2242 60.0979 34.3242 59.1979 34.3242 58.0979Z" fill="#FCC5AF" stroke="#4D4D4D" stroke-width="2" stroke-miterlimit="10" stroke-linejoin="round"/>
<path opacity="0.5" d="M34.2244 63.1979C32.5244 63.1979 25.4244 53.4979 25.5244 52.6979C25.6244 51.1979 25.4244 51.7979 25.4244 51.7979L34.2244 51.9979C34.2244 52.0979 34.4244 63.1979 34.2244 63.1979Z" fill="#F99F7A"/>
<path d="M34.3242 58.0979V43.598H24.0242V58.0979C24.0242 59.1979 23.1242 60.0979 22.0242 60.0979H20.3242C20.3242 63.4979 25.0242 66.1979 29.1242 66.1979C33.2242 66.1979 37.9242 63.4979 37.9242 60.0979H36.3242C35.2242 60.0979 34.3242 59.1979 34.3242 58.0979Z" stroke="#4D4D4D" stroke-width="2" stroke-miterlimit="10" stroke-linejoin="round"/>
<path d="M11.8243 37.1979C13.9782 37.1979 15.7243 35.4518 15.7243 33.2979C15.7243 31.144 13.9782 29.3979 11.8243 29.3979C9.67041 29.3979 7.92432 31.144 7.92432 33.2979C7.92432 35.4518 9.67041 37.1979 11.8243 37.1979Z" fill="#FCC5AF" stroke="#4D4D4D" stroke-width="2" stroke-miterlimit="10" stroke-linejoin="round"/>
<path d="M46.6243 37.1979C48.7782 37.1979 50.5243 35.4518 50.5243 33.2979C50.5243 31.144 48.7782 29.3979 46.6243 29.3979C44.4703 29.3979 42.7242 31.144 42.7242 33.2979C42.7242 35.4518 44.4703 37.1979 46.6243 37.1979Z" fill="#FCC5AF" stroke="#4D4D4D" stroke-width="2" stroke-miterlimit="10" stroke-linejoin="round"/>
<path d="M40.3241 13.498C40.3241 13.498 41.3241 20.098 38.2241 23.398C35.5241 13.298 28.4241 9.79798 22.2241 11.898C15.2241 14.198 11.7241 20.398 11.7241 33.8979C11.7241 46.3979 21.0241 52.8979 28.7241 52.8979C37.5241 52.8979 46.7241 46.3979 46.7241 32.1979C46.7241 18.398 43.9241 15.898 40.3241 13.498Z" fill="#FCC5AF" stroke="#4D4D4D" stroke-width="2" stroke-miterlimit="10" stroke-linejoin="round"/>
<path d="M40.0241 36.698C41.2391 36.698 42.2241 35.713 42.2241 34.498C42.2241 33.283 41.2391 32.298 40.0241 32.298C38.8091 32.298 37.8241 33.283 37.8241 34.498C37.8241 35.713 38.8091 36.698 40.0241 36.698Z" fill="#F7B69D"/>
<path d="M18.324 36.698C19.539 36.698 20.524 35.713 20.524 34.498C20.524 33.283 19.539 32.298 18.324 32.298C17.109 32.298 16.124 33.283 16.124 34.498C16.124 35.713 17.109 36.698 18.324 36.698Z" fill="#F7B69D"/>
<path d="M27.7241 36.5979V38.2979C27.7241 38.998 28.3241 39.598 29.0241 39.598H30.6241" stroke="#4D4D4D" stroke-width="2" stroke-miterlimit="10" stroke-linecap="round" stroke-linejoin="round"/>
<path d="M26.624 44.898C28.424 45.598 30.024 45.598 31.724 44.898" stroke="#4D4D4D" stroke-width="2" stroke-miterlimit="10" stroke-linecap="round" stroke-linejoin="round"/>
<path d="M49.5242 66.798C49.5242 62.398 45.9242 58.798 41.5242 58.798H36.3242C36.3242 58.798 35.2242 65.798 29.2242 65.798C23.5242 65.798 21.8242 58.798 21.8242 58.798H16.8242C12.4242 58.798 8.82422 62.398 8.82422 66.798V68.098C14.2242 72.9979 21.3242 75.9979 29.1242 75.9979C37.0242 75.9979 44.1242 72.9979 49.5242 67.998V66.798Z" fill="#FD8F63"/>
<path d="M34.4243 63.198H48.6243C48.1243 62.198 47.4243 61.398 46.6243 60.6979H35.8243C35.5243 61.498 35.0243 62.398 34.4243 63.198Z" fill="#E0E5E4"/>
<path d="M24.0243 63.198C23.3243 62.398 22.8243 61.498 22.5243 60.6979H11.7243C10.9242 61.398 10.2242 62.298 9.72424 63.198H24.0243Z" fill="#E0E5E4"/>
<path d="M29.2242 65.898C28.8242 65.898 28.4242 65.898 28.0242 65.798H8.92422C8.92422 66.198 8.82422 66.498 8.82422 66.8979V68.1979L8.92422 68.2979H49.0243C49.1242 68.1979 49.2242 68.0979 49.3242 67.9979V66.8979C49.3242 66.498 49.3242 66.198 49.2243 65.798H30.5242C30.1242 65.798 29.6242 65.898 29.2242 65.898Z" fill="#E0E5E4"/>
<path d="M16.7241 73.298H41.4241C43.0241 72.598 44.5241 71.6979 45.9241 70.7979H12.2241C13.6241 71.6979 15.1241 72.598 16.7241 73.298Z" fill="#E0E5E4"/>
<path d="M29.1243 76.9979C21.4243 76.9979 14.0243 74.0979 8.22432 68.8979C8.02432 68.6979 7.92432 68.3979 7.92432 68.1979V66.8979C7.92432 61.8979 11.9243 57.8979 16.9243 57.8979H21.9243C22.4243 57.8979 22.8243 58.1979 22.9243 58.6979C22.9243 58.7979 24.5243 64.9979 29.3243 64.9979C34.4243 64.9979 35.3243 59.0979 35.4243 58.7979C35.5243 58.2979 35.9243 57.9979 36.4243 57.9979H41.6243C46.6243 57.9979 50.6243 61.9979 50.6243 66.9979V67.9979C50.6243 68.2979 50.5243 68.4979 50.3243 68.6979C44.4243 73.9979 36.9243 76.9979 29.1243 76.9979ZM9.92432 67.6979C15.2243 72.3979 22.0243 74.9979 29.1243 74.9979C36.3243 74.9979 43.2243 72.3979 48.5243 67.5979V66.8979C48.5243 62.9979 45.4243 59.8979 41.5243 59.8979H37.1243C36.4243 62.6979 34.1243 66.8979 29.2243 66.8979C23.9243 66.8979 21.7243 61.7979 21.1243 59.8979H16.9243C13.0243 59.8979 9.92432 62.9979 9.92432 66.8979V67.6979Z" fill="#4D4D4D"/>
<path d="M15.2241 67.7979V72.1979" stroke="#4D4D4D" stroke-width="2" stroke-miterlimit="10" stroke-linecap="round" stroke-linejoin="round"/>
<path d="M43.2241 67.7979V72.1979" stroke="#4D4D4D" stroke-width="2" stroke-miterlimit="10" stroke-linecap="round" stroke-linejoin="round"/>
<path d="M22.9243 31.298C23.7527 31.298 24.4243 30.6264 24.4243 29.798C24.4243 28.9695 23.7527 28.298 22.9243 28.298C22.0959 28.298 21.4243 28.9695 21.4243 29.798C21.4243 30.6264 22.0959 31.298 22.9243 31.298Z" fill="#4D4D4D"/>
<path d="M35.4243 31.298C36.2527 31.298 36.9243 30.6264 36.9243 29.798C36.9243 28.9695 36.2527 28.298 35.4243 28.298C34.5959 28.298 33.9243 28.9695 33.9243 29.798C33.9243 30.6264 34.5959 31.298 35.4243 31.298Z" fill="#4D4D4D"/>
</svg>
